packages/foundations/assets/icons/functional/images/business & payment/shopping_basket_12.svg

<svg width="12" height="12" viewBox="0 0 12 12" fill="none" xmlns="http://www.w3.org/2000/svg">
<g clip-path="url(#clip0_231_132)">
<path fill-rule="evenodd" clip-rule="evenodd" d="M5.98059 1.80048C7.40259 1.80048 8.39959 2.84748 8.39959 4.20048H10.1956C10.5696 4.20048 10.8626 4.54448 10.7876 4.92048L9.85259 9.71048C9.82296 9.84762 9.74768 9.97067 9.63906 10.0595C9.53043 10.1483 9.3949 10.1977 9.25459 10.1995H2.74459C2.60638 10.1973 2.47318 10.1474 2.3675 10.0583C2.26182 9.96918 2.19015 9.84632 2.16459 9.71048L1.21159 4.92048C1.19467 4.83307 1.19725 4.743 1.21914 4.6567C1.24103 4.57041 1.2817 4.49 1.33824 4.42123C1.39479 4.35246 1.46581 4.29702 1.54625 4.25886C1.62669 4.2207 1.71456 4.20077 1.80359 4.20048H3.59959C3.59959 2.86648 4.57759 1.80048 5.98059 1.80048ZM9.46059 5.40048H2.53959L3.24959 9.00048H8.76759L9.45959 5.40048H9.46059ZM5.99959 3.00048C5.25159 3.00048 4.80559 3.48648 4.80559 4.20048H7.19959C7.19959 3.50548 6.72959 3.00048 5.99959 3.00048Z" fill="#1A1C1F"/>
</g>
<defs>
<clipPath id="clip0_231_132">
<rect width="12" height="12" fill="white"/>
</clipPath>
</defs>
</svg>

<svg xmlns="http://www.w3.org/2000/svg" width="12" height="12" fill="none"><g clip-path="url(#a)"><path fill="#1A1C1F" fill-rule="evenodd" d="M5.98 1.8c1.423 0 2.42 1.047 2.42 2.4h1.796c.374 0 .667.344.592.72l-.935 4.79a.62.62 0 0 1-.598.49h-6.51a.6.6 0 0 1-.58-.49l-.953-4.79a.605.605 0 0 1 .592-.72H3.6c0-1.334.978-2.4 2.38-2.4m3.48 3.6H2.54L3.25 9h5.518zM6 3c-.748 0-1.194.486-1.194 1.2H7.2C7.2 3.505 6.73 3 6 3" clip-rule="evenodd"/></g><defs><clipPath id="a"><path fill="#fff" d="M0 0h12v12H0z"/></clipPath></defs></svg>
